!!!OTL: 1719. Unser alter Stabsverwalter. / [Satire aus der Franzosenzeit.]
!!!ODT: 1856
!!!ARE: Europa, Mitteleuropa, Deutschland, Westfalen, Soest
!!!SCT: E1719
!!!TXL: @@DE
!!!YEM: Copyright 1995, estate of Helmut Schaffrath.
**kern	**text
*ICvox	*
*M2/4	*
*k[b-]	*
*F:	*
=1	=1
!LO:TX:a:t=Weſtfäliſch. Umg. von Soeſt 1856.	!
{8cc	Un-
8cc	-ſer
8cc	al-
8ff	-ter
=2	=2
8a	Stabs-
8a	-ver-
8a	-wal-
8cc}	-ter
=3	=3
{8f	trägt
8f	den
8g	grau-
8a	-en
=4	=4
(>4b-/	Pelʒ,
4a)}	.
=5	=5
{8cc	Un-
8cc	-ſer
8cc	al-
8ff	-ter
=6	=6
8a	Stabs-
8a	-ver-
8a	-wal-
8cc}	-ter
=7	=7
{8f	trägt
8f	den
8g	grau-
8a	-en
=8	=8
(>4b-/	Pelʒ,
4a)}	.
=9	=9
{8cc	ei-
8cc	-ne
8ff	bun-
8ff	-te
=10	=10
4dd	Mü-
4b-}	-tʒe,
=11	=11
{8dd	ob
8dd	ſie
8ff	auch
8dd	was
=12	=12
4cc	nü-
4a}	-tʒe?
=13||	=13||
{8cc	Schlägt
8b-	die
8a	Nach-
8g	-ti-
=14	=14
8f	-gall,
16f	vi-
16g	-de-
8f	-bom-
8f}	-bom,
=15	=15
{8g	ſchlägt
8b-/	die
8e	Nach-
8g	-ti-
=16	=16
4f	-gall.
4r}	.
==	==
!!!AGN: Spott - Lied, Satire
!!!ONB: ESAC (Essen Associative Code) Database: ERK3
!!!AMT: simple duple
!!!AIN: vox
!!!EED: Helmut Schaffrath
!!!EEV: 1.0
!!!RDF**kern: >=above
!!!GTL: Scherz-, Spiel- und Spottlieder.
!!!URL-scan: https://rosdok.uni-rostock.de/mcrviewer/recordIdentifier/rosdok_ppn745177999/iview2/phys_0518.iview2?x=-449.8344612962892&y=2016.1153413378634&scale=0.47549036216460333&rotation=0&layout=singlePageLayout
!!!ENC: Anna Maria Matuszewska
!!!EEV: 2025/08/01
*-	*-
